X:1
T:The Bells Are Calling
T:John Robson Sweney
T:The Bells Are Calling
T:Public Domain
T:Public Domain
C:John Robson Sweney
Z:Public Domain
%%score ( 1 2 ) ( 3 4 )
L:1/8
M:4/4
K:G
V:1 treble 
V:2 treble 
V:3 bass 
V:4 bass 
V:1
 [Gd]3 [GB] [GB][DA][DG][CE] | [B,D]4 [DG]2 [DF][DG] | [FA]3 [Fc] [GB]2 [FA]2 | [GB]6 z2 | %4
w: 1.~Come a- way, the bells are|call- ing, Mer- ry|bells of Christ- mas|time;|
w: 2.~Come a- way, they still are|call- ing, While, to|crown our fes- tal|scene,|
w: 3.~Come a- way, our faith is|call- ing, And we|look with lov- ing|eyes|
w: 4.~Come a- way, our souls are|call- ing, While the|bells re- spons- ive|ring;|
 [Gd]3 [Ge] [Gd][GB][DA][DG] | [EG]4 [CE]2 [Ec][Ec] | [DB]3 [DG] [DA]2 [DA]2 | [DG]6 z2 || %8
w: Youth- ful hearts a- gain are|bound- ing While we|catch their tune- ful|chime.|
w: Bu- sy fin- gers now are|twin- ing Wreaths of|hol- ly bright and|green.|
w: On a low- ly mang- er|cra- dle Where the|in- fant Sav- ior|lies.|
w: Hal- le- lu- jah in the|high- est To the|Lord’s a- noint- ed|king.|
"^Refrain" [DF][EG][FA][GB] [Ac]4 | B[DA][DG][DB] (GF G2) | [Ge][Gd][Ac][GB] [FA][EG][DF][^CE] | %11
w: |||
w: Mer- ry, mer- ry bells,|mer- ry, mer- ry bells, * *|en to their car- ol and the joy|
w: |||
w: |||
 [A,D]2 [^CE]2 [=CF]4 | [B,G][B,D][DG][DA] [DB]4 | [DB][DG][DB][Dc] (GF G2) | %14
w: |||
w: it tells; Ring-|ing far and near, ring-|ing sweet and clear, O * *|
w: |||
w: |||
 [Ge][Ge][Gd][Gc] [GB][Gd]G[GA] | [GB]2 [DA]2 [DG]4 |] %16
w: ||
w: bless- èd mu- sic of the old- time||
w: ||
w: ||
V:2
 x8 | x8 | x8 | x8 | x8 | x8 | x8 | x8 || x8 | x4 d4 | x8 | x8 | x8 | x4 d4 | x6 G x | x8 |] %16
w: ||||||||||||||||
w: |||||||||List-||||the|bells.||
V:3
 [G,B,]3 [G,D] [G,D][G,C][G,B,]G, | [G,,G,]4 [G,,B,]2 [D,A,][D,B,] | [D,C]3 [D,A,] [D,D]2 [D,D]2 | %3
w: ~ ~ ~ ~ ~ ~|~ ~ ~ ~|~ ~ ~ ~|
 [G,D]6 z2 | [G,B,]3 [G,C] [G,B,][G,D][G,C][G,B,] | [C,C]4 [C,G,]2 [C,G,][C,G,] | %6
w: ~|~ ~ ~ ~ ~ ~|~ ~ ~ ~|
 [D,G,]3 [D,B,] [D,C]2 [D,C]2 | [G,,B,]6 z2 || [D,A,][D,D][D,D][D,D] [D,D][E,D] [F,D]2 | %9
w: ~ ~ ~ ~|Mer-|ry, mer- ry Christ- mas bells, mer-|
 [G,D][G,C][G,B,]G, [G,B,][A,C] [B,D]2 | C[B,D][F,D][G,D] [A,D]A,A,[G,A,] | %11
w: ry, mer- ry Christ- mas bells, ~|~ ~ ~ ~ ~ ~ ~ ~|
 [F,A,]2 [E,A,]2 [D,A,]4 | [G,,G,][G,,G,][B,,G,][D,F,] G,G, G,2 | %13
w: ring- ing far|and near Ring- ing, ring- ing sweet|
 G,[G,B,]G,[G,A,] [G,B,][A,C] [B,D]2 | CC[B,D][A,D] [G,D][G,B,][B,,D][C,E] | %15
w: ||
 [D,D]2 [D,C]2 [G,,B,]4 |] %16
w: |
V:4
 x7 G, | x8 | x8 | x8 | x8 | x8 | x8 | x8 || x8 | x3 G, x4 | C x3 A,A, x2 | x8 | x4 G,G, G,2 | %13
w: ~|||||||||~|~ Ring- ing,||and clear, *|
 G,G, x6 | CC x6 | x8 |] %16
w: |||

